X:126
T:Untitled. JaW.126
M:2/4
L:1/8
Q:1/4=120
S:James Winder Ms, Lancashire, 1835-41
R:.Country Dance
O:England
A:Wyresdale,Lancashire
N:A surprising tune.
Z:vmp.Chris Partington, Aug 2004
K:C
e2 f/d/B/d/|cGGG|e2 f/d/B/d/|c2c2|!
e2 f/d/B/d/|cGGG|e2 f/d/B/d/|”cr”c4:|!
|:f>gaa|ffcc|f>gaa|ff f/a/g/f/|!
e2 f/d/B/d/|cGGG|e2 f/d/B/d/|”cr”c3:|!
|:a/g/|^fd de/f/|gg g/b/a/g/|^fd de/f/|gg ga/g/|!
^fd de/f/|gg g/b/a/g/|^fd de/f/|gg g/a/g/f/|!
e2f/d/B/d/|cGGG|e2f/d/B/d/|c2c2|!
e2f/d/B/d/|cGGG|e2f/d/B/d/|c4:|!
|:aac’c’|aac’c’|d’2c’b|c’3g|!
aac’c’|aac’c’|d’2c’b|c’3g|!
egeg|c’3g|egeg|e4:|

